icons/eye-slash-24.svg

<svg width="24" height="24" viewBox="0 0 24 24" xmlns="http://www.w3.org/2000/svg">
  <path d="M8.05196 5.83655C9.21738 5.32383 10.5321 5.00012 12 5.00012C14.9551 5.00012 17.3088 6.31539 19.0604 7.86435C20.8159 9.41683 21.9259 11.1705 22.3674 11.9445C22.3791 11.9651 22.3829 11.9834 22.3829 11.9993C22.3828 12.0155 22.3787 12.0357 22.3655 12.059C22.0997 12.5247 21.5881 13.3515 20.8354 14.2768C20.574 14.5981 20.6225 15.0705 20.9438 15.3319C21.2652 15.5933 21.7375 15.5447 21.9989 15.2234C22.8156 14.2196 23.3723 13.3209 23.6682 12.8025C23.9512 12.3067 23.9569 11.7037 23.6703 11.2013C23.1855 10.3513 21.9797 8.44363 20.054 6.74071C18.1245 5.03428 15.4319 3.50012 12 3.50012C10.3046 3.50012 8.78503 3.8753 7.44792 4.46355C7.06878 4.63035 6.89664 5.07293 7.06344 5.45207C7.23024 5.83122 7.67282 6.00335 8.05196 5.83655Z"/>
  <path fill-rule="evenodd" clip-rule="evenodd" d="M19.166 17.9873C17.3278 19.3788 14.933 20.5001 12 20.5001C8.56806 20.5001 5.87546 18.966 3.94586 17.2595C2.02024 15.5566 0.814363 13.6488 0.329552 12.7989C0.0433932 12.2972 0.0478802 11.6949 0.331249 11.1984C0.790741 10.3933 1.89652 8.64044 3.64787 7.01109L1.31684 5.36231C0.97867 5.12312 0.898434 4.65507 1.13763 4.3169C1.37682 3.97873 1.84487 3.89849 2.18304 4.13769L22.683 18.6377C23.0212 18.8769 23.1014 19.3449 22.8623 19.6831C22.6231 20.0213 22.155 20.1015 21.8168 19.8623L19.166 17.9873ZM4.90172 7.89796C3.17113 9.43933 2.07421 11.1706 1.63401 11.9419C1.62078 11.9651 1.61686 11.985 1.61682 12.0007C1.61678 12.0162 1.62048 12.0346 1.6325 12.0557C2.07398 12.8297 3.18405 14.5834 4.93956 16.1359C6.6911 17.6848 9.04483 19.0001 12 19.0001C14.3336 19.0001 16.2907 18.1805 17.8736 17.0732L14.3579 14.5865C13.7358 15.1539 12.9083 15.5 11.9999 15.5C10.0669 15.5 8.49988 13.933 8.49988 12C8.49988 11.5167 8.59783 11.0563 8.77496 10.6376L4.90172 7.89796Z"/>
</svg>

<svg xmlns="http://www.w3.org/2000/svg" width="24" height="24" viewBox="0 0 24 24"><path d="M8.052 5.837A9.715 9.715 0 0112 5c2.955 0 5.309 1.315 7.06 2.864 1.756 1.553 2.866 3.307 3.307 4.08a.11.11 0 01.016.055.122.122 0 01-.017.06 16.766 16.766 0 01-1.53 2.218.75.75 0 101.163.946 18.253 18.253 0 001.67-2.42 1.607 1.607 0 00.001-1.602c-.485-.85-1.69-2.757-3.616-4.46C18.124 5.034 15.432 3.5 12 3.5c-1.695 0-3.215.374-4.552.963a.75.75 0 00.604 1.373z"/><path fill-rule="evenodd" d="M19.166 17.987C17.328 19.38 14.933 20.5 12 20.5c-3.432 0-6.125-1.534-8.054-3.24C2.02 15.556.814 13.648.33 12.798a1.606 1.606 0 01.001-1.6A18.305 18.305 0 013.648 7.01L1.317 5.362a.75.75 0 11.866-1.224l20.5 14.5a.75.75 0 11-.866 1.224l-2.651-1.875zM4.902 7.898c-1.73 1.541-2.828 3.273-3.268 4.044a.118.118 0 00-.017.059c0 .015.003.034.016.055.441.774 1.551 2.527 3.307 4.08C6.69 17.685 9.045 19 12 19c2.334 0 4.29-.82 5.874-1.927l-3.516-2.487a3.5 3.5 0 01-5.583-3.949L4.902 7.899z"/></svg>
